X:208
T: VON DIR MUSS ICH SCHEIDEN
N: E0786
O: Europa, Mitteleuropa, Deutschland, Hessen, Nassau
R: Abschieds -, Wander - Lied
M: 2/4
L: 1/16
K: Bb
 | F2B2B2B2 | B2d2d4 |
c3BA2G2 | A4z4 |
A3Bc2d2 | e4A4 |
c3Bc2d2 | B4z4 |
F2B2B2B2 | B2d2d4 |
c2B2A2G2 | A2F2F4 |
A3Bc2d2 | e8 |
d3cc2d2 | B4z4

@@@ Tune index: 4521
